X: 35
T:The Scotch Ramble
% Nottingham Music Database
S:Mick Peat
M:4/4
L:1/4
K:A
"A"A/4A/4A/2A/2c/2 e/2c/2A/2c/2|"E"B/4B/4B/2G/2B/2 dc/2B/2|\
"A"A/4A/4A/2A/2c/2 e/2c/2"E"d/2B/2|"A"c3/4e/4"E"B/2c/2 "A"A/4A/4A/2A:|
"A"c/2e/2e/2f/4g/4 ae/2c/2|a/2e/2c/2A/2 "E"B/4B/4B/2B/2d/2|\
"A"c/2A/2e/2A/2 a/2e/2c/2A/2|c3/4e/4"E"B/2c/2 "A"A/4A/4A/2A:|<end>
<start>
